icons/addressbook/new-list.svg

<?xml version="1.0" encoding="UTF-8"?>
<svg width="16px" height="16px" viewBox="0 0 16 16" version="1.1" xmlns="http://www.w3.org/2000/svg" xmlns:xlink="http://www.w3.org/1999/xlink">
    <!-- Generator: Sketch 46.1 (44463) - http://www.bohemiancoding.com/sketch -->
    <title>Artboard 2 Copy 15</title>
    <desc>Created with Sketch.</desc>
    <defs></defs>
    <g id="Page-1" stroke="none" stroke-width="1" fill="none" fill-rule="evenodd">
        <g id="Artboard-2-Copy-15" fill-rule="nonzero">
            <path d="M12.4647932,8.00013485 C10.4991565,8.01519708 8.83352226,9.290524 8.23600558,11.0580006 C6.51908287,11.321247 5.089847,12.4578287 4.41604369,14 L8.25605856,14 C8.53593426,14.7918412 9.03114611,15.4819616 9.67133283,16 L2,16 C2,12.8982423 4.01740683,10.2676752 6.81166269,9.3488565 L6.81166269,9.3488565 C5.72068836,8.63449838 5,7.40141208 5,6 C5,3.790861 6.790861,2 9,2 C11.209139,2 13,3.790861 13,6 C13,6.72862995 12.8051817,7.41175764 12.4647932,8.00013485 Z M15.9714585,15.363581 C15.9903494,15.573193 16,15.7854695 16,16 L15.3286672,16 C15.5636171,15.8098788 15.7790402,15.5965798 15.9714585,15.363581 Z M9,8 C10.1045695,8 11,7.1045695 11,6 C11,4.8954305 10.1045695,4 9,4 C7.8954305,4 7,4.8954305 7,6 C7,7.1045695 7.8954305,8 9,8 Z" id="Combined-Shape" fill="#000000"></path>
            <path d="M4.04859747,6.69989247 C3.39734965,5.98836862 3,5.0405873 3,4 C3,1.790861 4.790861,0 7,0 C8.0405873,0 8.98836862,0.397349653 9.69989247,1.04859747 C9.47119148,1.01656314 9.23753,1 9,1 C6.23857625,1 4,3.23857625 4,6 C4,6.23753 4.01656314,6.47119148 4.04859747,6.69989247 Z M1.25203497,14 L0,14 C0,11.1107674 1.75042203,8.6303677 4.24863554,7.56143153 C4.42691363,8.10424691 4.69561768,8.60605045 5.0369309,9.04902537 C3.18492509,10.1072161 1.7965939,11.8842402 1.25203497,14 Z" id="Combined-Shape" fill="#000000"></path>
            <path d="M12.5,16 C10.5670034,16 9,14.4329966 9,12.5 C9,10.5670034 10.5670034,9 12.5,9 C14.4329966,9 16,10.5670034 16,12.5 C16,14.4329966 14.4329966,16 12.5,16 Z M13,12 L13,10.5 C13,10.2238576 12.7761424,10 12.5,10 C12.2238576,10 12,10.2238576 12,10.5 L12,12 L10.5,12 C10.2238576,12 10,12.2238576 10,12.5 C10,12.7761424 10.2238576,13 10.5,13 L12,13 L12,14.5 C12,14.7761424 12.2238576,15 12.5,15 C12.7761424,15 13,14.7761424 13,14.5 L13,13 L14.5,13 C14.7761424,13 15,12.7761424 15,12.5 C15,12.2238576 14.7761424,12 14.5,12 L13,12 Z" id="Combined-Shape" fill="#0F0F0F"></path>
        </g>
    </g>
</svg>

<!-- This Source Code Form is subject to the terms of the Mozilla Public
   - License, v. 2.0. If a copy of the MPL was not distributed with this
   - file, You can obtain one at http://mozilla.org/MPL/2.0/. -->
<svg width="16" height="16" xmlns="http://www.w3.org/2000/svg">
  <g fill-rule="nonzero" fill="none">
    <path d="M12.465 8a4.502 4.502 0 0 0-4.229 3.058A5.006 5.006 0 0 0 4.416 14h3.84c.28.792.775 1.482 1.415 2H2a7.003 7.003 0 0 1 4.812-6.651A4 4 0 1 1 12.465 8zm3.506 7.364c.02.21.029.421.029.636h-.671c.235-.19.45-.403.642-.636zM9 8a2 2 0 1 0 0-4 2 2 0 0 0 0 4z" fill="#000"/>
    <path d="M4.049 6.7A4 4 0 0 1 9.7 1.049 5 5 0 0 0 4.049 6.7zM1.252 14H0c0-2.89 1.75-5.37 4.249-6.439.178.543.447 1.045.788 1.488A8.016 8.016 0 0 0 1.252 14z" fill="#000"/>
    <path d="M12.5 16a3.5 3.5 0 1 1 0-7 3.5 3.5 0 0 1 0 7zm.5-4v-1.5a.5.5 0 1 0-1 0V12h-1.5a.5.5 0 1 0 0 1H12v1.5a.5.5 0 1 0 1 0V13h1.5a.5.5 0 1 0 0-1H13z" fill="#0F0F0F"/>
  </g>
</svg>
